dist/img/svg/logo.svg

<svg width="40" height="52" viewBox="0 0 40 52" fill="none" xmlns="http://www.w3.org/2000/svg"><path fill-rule="evenodd" clip-rule="evenodd" d="M20.4 2.4h-.2c-.2-.1-.3-.1-.4-.2l.6-.4.6.4c-.1.1-.3.1-.4.2h-.2zM19.2.9c0 .1-.1.8.5 1.2l.2-.7-.7-.5zm2.4 0l-.7.5.2.7c.5-.4.5-1 .5-1.2zm.9 16.6c0-.9-.5-1.6-1.2-1.9l-.1-.1c-.3-.1-.3-.5-.3-.5l.6-1.5c-.1-.4-.5-.5-.5-.5v-.4s.4-.5.3-1.2c0-.1-.5-7.2-.6-8 .2-.1.3-.3.3-.5v-.2c1.5-.8.8-2.2.5-2.4l-.1.1c.1 0 .2.2.3.4h-.9l-.4-.8-.3.9h-.9c.1-.2.2-.4.3-.4l-.1-.1c-.3.2-1.1 1.5.5 2.4V3c0 .2.1.4.3.5-.1.7-.6 7.9-.6 8-.1.7.2 1.2.2 1.2v.3s-.4.1-.5.5l.6 1.5s0 .4-.3.5c-.8.3-1.4 1.1-1.4 2v1.7h-.9v2.7h6.1v-2.7h-.9v-1.7zm-.8 29.1h1V23h-1v23.6zm16.5-14.1V50c.6.2 1.2.5 1.8.8V32.5h-1.8zm-3.5 0H32V48c1.8.5 3.6 1 5.3 1.7V30.9h-2.6v1.6zM26.9 47c1.4.2 2.7.4 4 .7v-9.4h-4V47zm-3.3-.3c.8.1 1.5.1 2.3.2V23h-2.3v23.7zM5.4 30.9H2.7v19c1.7-.7 3.5-1.3 5.3-1.7V32.5H5.4v-1.6zm3.7 17c1.4-.3 2.8-.6 4.3-.8v-8.8H9.1v9.6zM0 51.1c.6-.3 1.2-.6 1.8-.8V32.5H0v18.6zm19.9-4.6h1V23h-1v23.5zm-5.4-9.3v9.7c.9-.1 1.7-.2 2.6-.3V23h-2.6v14.2zm3.5 9.4h1V23h-1v23.6z" fill="#fff"/></svg>V32.5ZM26.9 47C28.3 47.2 29.6 47.4 30.9 47.7V38.3H26.9V47ZM23.6 46.7C24.4 46.8 25.1 46.8 25.9 46.9V23H23.6V46.7ZM5.4 30.9H2.7V49.9C4.4 49.2 6.2 48.6 8 48.2V32.5H5.4V30.9ZM9.1 47.9C10.5 47.6 11.9 47.3 13.4 47.1V38.3H9.1V47.9ZM0 51.1C0.6 50.8 1.2 50.5 1.8 50.3V32.5H0V51.1ZM19.9 46.5C20.1 46.5 20.2 46.5 20.4 46.5C20.6 46.5 20.7 46.5 20.9 46.5V23H19.9V46.5ZM14.5 37.2V46.9C15.4 46.8 16.2 46.7 17.1 46.6V23H14.5V37.2ZM18 46.6C18.3 46.6 18.6 46.6 19 46.6V23H18V46.6Z" fill="white"/>
</svg>

<svg width="40" height="52" viewBox="0 0 40 52" fill="none" xmlns="http://www.w3.org/2000/svg">
<path fill-rule="evenodd" clip-rule="evenodd" d="M20.4 2.4H20.2C20 2.3 19.9 2.3 19.8 2.2L20.4 1.8L21 2.2C20.9 2.3 20.7 2.3 20.6 2.4H20.4ZM19.2 0.9C19.2 1 19.1 1.7 19.7 2.1L19.9 1.4L19.2 0.9ZM21.6 0.9L20.9 1.4L21.1 2.1C21.6 1.7 21.6 1.1 21.6 0.9ZM22.5 17.5C22.5 16.6 22 15.9 21.3 15.6L21.2 15.5C20.9 15.4 20.9 15 20.9 15L21.5 13.5C21.4 13.1 21 13 21 13V12.6C21 12.6 21.4 12.1 21.3 11.4C21.3 11.3 20.8 4.2 20.7 3.4C20.9 3.3 21 3.1 21 2.9V2.7C22.5 1.9 21.8 0.5 21.5 0.3L21.4 0.4C21.5 0.4 21.6 0.6 21.7 0.8H20.8L20.4 0L20.1 0.9H19.2C19.3 0.7 19.4 0.5 19.5 0.5L19.4 0.4C19.1 0.6 18.3 1.9 19.9 2.8V3C19.9 3.2 20 3.4 20.2 3.5C20.1 4.2 19.6 11.4 19.6 11.5C19.5 12.2 19.8 12.7 19.8 12.7V13C19.8 13 19.4 13.1 19.3 13.5C19.9 15 19.9 15 19.9 15C19.9 15 19.9 15.4 19.6 15.5C18.8 15.8 18.2 16.6 18.2 17.5V19.2H17.3V21.9H23.4V19.2H22.5V17.5ZM21.7 46.6C22 46.6 22.3 46.6 22.7 46.6V23H21.7V46.6ZM38.2 32.5V50C38.8 50.2 39.4 50.5 40 50.8V32.5H38.2ZM34.7 32.5H32V48C33.8 48.5 35.6 49 37.3 49.7V30.9H34.7V32.5ZM26.9 47C28.3 47.2 29.6 47.4 30.9 47.7V38.3H26.9V47ZM23.6 46.7C24.4 46.8 25.1 46.8 25.9 46.9V23H23.6V46.7ZM5.4 30.9H2.7V49.9C4.4 49.2 6.2 48.6 8 48.2V32.5H5.4V30.9ZM9.1 47.9C10.5 47.6 11.9 47.3 13.4 47.1V38.3H9.1V47.9ZM0 51.1C0.6 50.8 1.2 50.5 1.8 50.3V32.5H0V51.1ZM19.9 46.5C20.1 46.5 20.2 46.5 20.4 46.5C20.6 46.5 20.7 46.5 20.9 46.5V23H19.9V46.5ZM14.5 37.2V46.9C15.4 46.8 16.2 46.7 17.1 46.6V23H14.5V37.2ZM18 46.6C18.3 46.6 18.6 46.6 19 46.6V23H18V46.6Z" fill="white"/>
</svg>
